X:1
T:Title
%%score { 1 | ( 2 3 ) }
L:1/8
M:4/4
K:F
V:1 treble nm="Grand Piano"
V:2 bass 
V:3 bass 
V:1
 z4 z2[Q:1/4=100] F2 | A3 A AG F>G | A6 A2 | B3 B F2 G2 |[M:3/4] A6 |[M:1/4] A2 | %6
[M:4/4] [FA]3 [EG] C2 B2 | B3 A A2 A2 | G3 G A2 G2 |[M:3/4] [Ec]6 |[M:1/4] B2 | %11
[M:4/4] A3 A AG F>G | A6 A2 | B3 B F2 G2 |[M:3/4] A6 |[M:1/4] A2 |[M:4/4] c3 A F2 [C_E]2 | %17
 [B,D]2 [DF]2 [DB]3 [DB] | A2 C2 G3 C |[M:3/4] [CA]6 |[M:1/4] [CFA]2 | %21
[M:4/4] [FAc]3 [CFA] [A,CF]2[K:bass] [F,C_E]2 | [F,B,D][K:treble][DF] [DB]2 [Fd]3 [Fd] | %23
 [Fc]2 [FA]2 [EG]3 F |[M:3/4] F6 |] %25
V:2
 z4 z2 [F,A,C]2 | [F,CF]3 [F,CF] [F,CF][F,B,F] [F,A,]>[F,B,F] | [F,CF]6 [F,CF]2 | %3
 [F,DF]3 [F,DF] [F,D]2 [F,^CF]2 |[M:3/4] [F,CF]6 |[M:1/4] [F,CF]2 | %6
[M:4/4] [C,C]3 [C,B,] [C,B,]2 [E,G,C]2 | [F,DF]3 [F,CF] [F,CF]2 [F,CF]2 | %8
 [G,CE]3 [G,CE] [G,=B,F]2 [G,F]2 |[M:3/4][K:bass] [C,G,]6 |[M:1/4] [E,G,C]2 | %11
[M:4/4] [F,C]3 [F,C] [F,C][F,B,] [F,A,]>[F,B,] | [F,C]6 [F,C]2 | [F,D]3 [F,D] [F,D]2 [F,^C]2 | %14
[M:3/4] [F,C]6 |[M:1/4] [F,C]2 |[M:4/4] [F,A,F]3 [F,CF] [F,A,C]2 [A,,F,]2 | %17
 [B,,F,]2 [B,,B,]2 [B,,F,]3 [B,,F,] | [C,F,C]2 [C,A,]2 [C,B,C]3 E, |[M:3/4] F,6 |[M:1/4] F,2 | %21
[M:4/4] F,3 F, F,2 A,,2 | z B, [B,,B,]2 [B,,B,]3 [=B,,_A,] | [C,A,]2 [C,C]2 [C,B,]3 [F,A,] | %24
[M:3/4] [F,A,C]6 |] %25
V:3
 x8 | x8 | x8 | x8 |[M:3/4] x6 |[M:1/4] x2 |[M:4/4] x8 | x8 | x8 |[M:3/4][K:bass] x6 |[M:1/4] x2 | %11
[M:4/4] x8 | x8 | x8 |[M:3/4] x6 |[M:1/4] x2 |[M:4/4] x8 | x8 | x8 |[M:3/4] x6 |[M:1/4] x2 | %21
[M:4/4] x8 | B,,2 z2 z4 | x8 |[M:3/4] x6 |] %25

